SVG_Azure_Grouped/Compute/Shared Image Gallery.svg

<?xml version="1.0" encoding="UTF-8" standalone="no"?>
<!-- Generated by Microsoft Visio, SVG Export Shared Image Gallery.svg Page-1 -->

<svg
   xmlns:dc="http://purl.org/dc/elements/1.1/"
   xmlns:cc="http://creativecommons.org/ns#"
   xmlns:rdf="http://www.w3.org/1999/02/22-rdf-syntax-ns#"
   xmlns:svg="http://www.w3.org/2000/svg"
   xmlns="http://www.w3.org/2000/svg"
   xmlns:sodipodi="http://sodipodi.sourceforge.net/DTD/sodipodi-0.dtd"
   xmlns:inkscape="http://www.inkscape.org/namespaces/inkscape"
   width="0.78735679in"
   height="0.78739709in"
   viewBox="0 0 56.689597 56.692901"
   xml:space="preserve"
   class="st9"
   version="1.1"
   id="svg70"
   sodipodi:docname="Shared Image Gallery.svg"
   style="font-size:12px;overflow:visible;color-interpolation-filters:sRGB;fill:none;fill-rule:evenodd;stroke-linecap:square;stroke-miterlimit:3"
   inkscape:version="0.92.5 (2060ec1f9f, 2020-04-08)"><metadata
   id="metadata74"><rdf:RDF><cc:Work
       rdf:about=""><dc:format>image/svg+xml</dc:format><dc:type
         rdf:resource="http://purl.org/dc/dcmitype/StillImage" /></cc:Work></rdf:RDF></metadata><sodipodi:namedview
   pagecolor="#ffffff"
   bordercolor="#666666"
   borderopacity="1"
   objecttolerance="10"
   gridtolerance="10"
   guidetolerance="10"
   inkscape:pageopacity="0"
   inkscape:pageshadow="2"
   inkscape:window-width="640"
   inkscape:window-height="480"
   id="namedview72"
   showgrid="false"
   inkscape:zoom="1.4193119"
   inkscape:cx="37.795128"
   inkscape:cy="37.786193"
   inkscape:window-x="0"
   inkscape:window-y="0"
   inkscape:window-maximized="0"
   inkscape:current-layer="svg70" />
	<style
   type="text/css"
   id="style2">
	<![CDATA[
		.st1 {fill:#005ba1;stroke:none;stroke-linecap:butt;stroke-width:34}
		.st2 {fill:#0078d4;stroke:none;stroke-linecap:butt;stroke-width:34}
		.st3 {fill:#32bedd;stroke:none;stroke-linecap:butt;stroke-width:34}
		.st4 {fill:#50e6ff;stroke:none;stroke-linecap:butt;stroke-width:34}
		.st5 {fill:#c3f1ff;stroke:none;stroke-linecap:butt;stroke-width:34}
		.st6 {fill:#9cebff;stroke:none;stroke-linecap:butt;stroke-width:34}
		.st7 {fill:url(#grad0-22);stroke:none;stroke-linecap:butt;stroke-width:34}
		.st8 {fill:#f2f2f2;stroke:none;stroke-linecap:butt;stroke-width:34}
		.st9 {fill:none;fill-rule:evenodd;font-size:12px;overflow:visible;stroke-linecap:square;stroke-miterlimit:3}
	]]>
	</style>

	<defs
   id="Patterns_And_Gradients">
		<linearGradient
   id="grad0-22"
   x1="0"
   y1="175.50115"
   x2="33.781203"
   y2="175.50115"
   gradientTransform="scale(1.6781522,0.59589351)"
   gradientUnits="userSpaceOnUse">
			<stop
   offset="0"
   stop-color="#0078d4"
   stop-opacity="1"
   id="stop4" />
			<stop
   offset="0.82"
   stop-color="#5ea0ef"
   stop-opacity="1"
   id="stop6" />
		</linearGradient>
	</defs>
	<g
   id="g68"
   transform="translate(-34.000441,-34.0014)">
		<title
   id="title10">Page-1</title>
		<g
   id="group11158-1"
   transform="translate(34,-34.0157)">
			<title
   id="title12">Shared Image Gallery.11158</title>
			<g
   id="group11159-2">
				<title
   id="title14">Icon-compute-39</title>
				<g
   id="shape11160-3"
   transform="translate(17.0045,-14.7529)">
					<title
   id="title16">Sheet.11160</title>
					<path
   d="m 0,123.3 a 1.41147,1.41147 -180 0 0 1.41,1.41 H 32.09 A 1.41147,1.41147 -180 0 0 33.5,123.3 V 84.18 A 1.41147,1.41147 -180 0 0 32.09,82.77 H 1.41 A 1.41147,1.41147 -180 0 0 0,84.18 Z"
   class="st1"
   id="path18"
   inkscape:connector-curvature="0"
   style="fill:#005ba1;stroke:none;stroke-width:34;stroke-linecap:butt" />
				</g>
				<g
   id="shape11161-5"
   transform="translate(11.93,-10.2162)">
					<title
   id="title21">Sheet.11161</title>
					<path
   d="m 0,123.3 a 1.41147,1.41147 -180 0 0 1.41,1.41 H 32.09 A 1.41147,1.41147 -180 0 0 33.5,123.3 V 84.18 A 1.41147,1.41147 -180 0 0 32.09,82.77 H 1.41 A 1.41147,1.41147 -180 0 0 0,84.18 Z"
   class="st2"
   id="path23"
   inkscape:connector-curvature="0"
   style="fill:#0078d4;stroke:none;stroke-width:34;stroke-linecap:butt" />
				</g>
				<g
   id="shape11162-7"
   transform="translate(6.78836,-5.64577)">
					<title
   id="title26">Sheet.11162</title>
					<path
   d="m 0,123.3 a 1.41147,1.41147 -180 0 0 1.41,1.41 H 32.09 A 1.41147,1.41147 -180 0 0 33.5,123.3 V 84.18 A 1.41147,1.41147 -180 0 0 32.09,82.77 H 1.41 A 1.41147,1.41147 -180 0 0 0,84.18 Z"
   class="st3"
   id="path28"
   inkscape:connector-curvature="0"
   style="fill:#32bedd;stroke:none;stroke-width:34;stroke-linecap:butt" />
				</g>
				<g
   id="shape11163-9"
   transform="translate(23.5576,-17.9791)">
					<title
   id="title31">Sheet.11163</title>
					<path
   d="M 9.78,107.6 V 119 L 0,124.71 v -11.39 z"
   class="st4"
   id="path33"
   inkscape:connector-curvature="0"
   style="fill:#50e6ff;stroke:none;stroke-width:34;stroke-linecap:butt" />
				</g>
				<g
   id="shape11164-11"
   transform="translate(13.7784,-29.3378)">
					<title
   id="title36">Sheet.11164</title>
					<path
   d="M 19.56,118.96 9.78,124.71 0,118.96 9.78,113.25 Z"
   class="st5"
   id="path38"
   inkscape:connector-curvature="0"
   style="fill:#c3f1ff;stroke:none;stroke-width:34;stroke-linecap:butt" />
				</g>
				<g
   id="shape11165-13"
   transform="translate(13.7784,-17.9791)">
					<title
   id="title41">Sheet.11165</title>
					<path
   d="m 9.78,113.35 v 11.36 L 0,119 v -11.4 z"
   class="st6"
   id="path43"
   inkscape:connector-curvature="0"
   style="fill:#9cebff;stroke:none;stroke-width:34;stroke-linecap:butt" />
				</g>
				<g
   id="shape11166-15"
   transform="translate(13.7784,-17.9791)">
					<title
   id="title46">Sheet.11166</title>
					<path
   d="m 0,119 9.78,-5.68 v 11.39 z"
   class="st5"
   id="path48"
   inkscape:connector-curvature="0"
   style="fill:#c3f1ff;stroke:none;stroke-width:34;stroke-linecap:butt" />
				</g>
				<g
   id="shape11167-17"
   transform="translate(23.5576,-17.9791)">
					<title
   id="title51">Sheet.11167</title>
					<path
   d="M 9.78,119 0,113.32 v 11.39 z"
   class="st6"
   id="path53"
   inkscape:connector-curvature="0"
   style="fill:#9cebff;stroke:none;stroke-width:34;stroke-linecap:butt" />
				</g>
				<g
   id="shape11168-19">
					<title
   id="title56">Sheet.11168</title>
					<path
   d="m 0,122.83 a 1.88197,1.88197 -180 0 0 1.88,1.88 h 52.93 a 1.88197,1.88197 -180 0 0 1.88,-1.88 v -16.37 a 1.88197,1.88197 -180 0 0 -1.88,-1.88 H 1.88 A 1.88197,1.88197 -180 0 0 0,106.46 Z"
   class="st7"
   id="path58"
   inkscape:connector-curvature="0"
   style="fill:url(#grad0-22);stroke:none;stroke-width:34;stroke-linecap:butt" />
				</g>
				<g
   id="shape11169-23"
   transform="translate(20.2979,-12.2325)">
					<title
   id="title61">Sheet.11169</title>
					<path
   d="m 0,123.26 a 1.44508,1.44508 -180 0 0 1.45,1.45 h 13.27 a 1.44508,1.44508 -180 0 0 1.44,-1.45 v -0.03 a 1.44508,1.44508 -180 0 0 -1.44,-1.45 H 1.45 A 1.44508,1.44508 -180 0 0 0,123.23 Z"
   class="st8"
   id="path63"
   inkscape:connector-curvature="0"
   style="fill:#f2f2f2;stroke:none;stroke-width:34;stroke-linecap:butt" />
				</g>
			</g>
		</g>
	</g>
</svg>

<?xml version="1.0" encoding="UTF-8" standalone="no"?>
<!DOCTYPE svg PUBLIC "-//W3C//DTD SVG 1.1//EN" "http://www.w3.org/Graphics/SVG/1.1/DTD/svg11.dtd">
<!-- Generated by Microsoft Visio, SVG Export Shared Image Gallery.svg Page-1 -->
<svg xmlns="http://www.w3.org/2000/svg" xmlns:xlink="http://www.w3.org/1999/xlink" xmlns:ev="http://www.w3.org/2001/xml-events"
		width="1.73185in" height="1.73206in" viewBox="0 0 124.693 124.709" xml:space="preserve" color-interpolation-filters="sRGB"
		class="st9">
	<style type="text/css">
	<![CDATA[
		.st1 {fill:#005ba1;stroke:none;stroke-linecap:butt;stroke-width:34}
		.st2 {fill:#0078d4;stroke:none;stroke-linecap:butt;stroke-width:34}
		.st3 {fill:#32bedd;stroke:none;stroke-linecap:butt;stroke-width:34}
		.st4 {fill:#50e6ff;stroke:none;stroke-linecap:butt;stroke-width:34}
		.st5 {fill:#c3f1ff;stroke:none;stroke-linecap:butt;stroke-width:34}
		.st6 {fill:#9cebff;stroke:none;stroke-linecap:butt;stroke-width:34}
		.st7 {fill:url(#grad0-22);stroke:none;stroke-linecap:butt;stroke-width:34}
		.st8 {fill:#f2f2f2;stroke:none;stroke-linecap:butt;stroke-width:34}
		.st9 {fill:none;fill-rule:evenodd;font-size:12px;overflow:visible;stroke-linecap:square;stroke-miterlimit:3}
	]]>
	</style>

	<defs id="Patterns_And_Gradients">
		<linearGradient id="grad0-22" x1="0" y1="0" x2="1" y2="0" gradientTransform="rotate(-90 0.5 0.5)">
			<stop offset="0" stop-color="#0078d4" stop-opacity="1"/>
			<stop offset="0.82" stop-color="#5ea0ef" stop-opacity="1"/>
		</linearGradient>
	</defs>
	<g>
		<title>Page-1</title>
		<g id="group10920-1" transform="translate(34,-34.0157)">
			<title>Shared Image Gallery.10920</title>
			<g id="group10921-2">
				<title>Icon-compute-39</title>
				<g id="shape10922-3" transform="translate(17.0045,-14.7529)">
					<title>Sheet.10922</title>
					<path d="M0 123.3 A1.41147 1.41147 -180 0 0 1.41 124.71 L32.09 124.71 A1.41147 1.41147 -180 0 0 33.5 123.3 L33.5
								 84.18 A1.41147 1.41147 -180 0 0 32.09 82.77 L1.41 82.77 A1.41147 1.41147 -180 0 0 0 84.18 L0 123.3
								 Z" class="st1"/>
				</g>
				<g id="shape10923-5" transform="translate(11.93,-10.2162)">
					<title>Sheet.10923</title>
					<path d="M0 123.3 A1.41147 1.41147 -180 0 0 1.41 124.71 L32.09 124.71 A1.41147 1.41147 -180 0 0 33.5 123.3 L33.5
								 84.18 A1.41147 1.41147 -180 0 0 32.09 82.77 L1.41 82.77 A1.41147 1.41147 -180 0 0 0 84.18 L0 123.3
								 Z" class="st2"/>
				</g>
				<g id="shape10924-7" transform="translate(6.78836,-5.64577)">
					<title>Sheet.10924</title>
					<path d="M0 123.3 A1.41147 1.41147 -180 0 0 1.41 124.71 L32.09 124.71 A1.41147 1.41147 -180 0 0 33.5 123.3 L33.5
								 84.18 A1.41147 1.41147 -180 0 0 32.09 82.77 L1.41 82.77 A1.41147 1.41147 -180 0 0 0 84.18 L0 123.3
								 Z" class="st3"/>
				</g>
				<g id="shape10925-9" transform="translate(23.5576,-17.9791)">
					<title>Sheet.10925</title>
					<path d="M9.78 107.6 L9.78 119 L0 124.71 L0 113.32 L9.78 107.6 Z" class="st4"/>
				</g>
				<g id="shape10926-11" transform="translate(13.7784,-29.3378)">
					<title>Sheet.10926</title>
					<path d="M19.56 118.96 L9.78 124.71 L0 118.96 L9.78 113.25 L19.56 118.96 Z" class="st5"/>
				</g>
				<g id="shape10927-13" transform="translate(13.7784,-17.9791)">
					<title>Sheet.10927</title>
					<path d="M9.78 113.35 L9.78 124.71 L0 119 L0 107.6 L9.78 113.35 Z" class="st6"/>
				</g>
				<g id="shape10928-15" transform="translate(13.7784,-17.9791)">
					<title>Sheet.10928</title>
					<path d="M0 119 L9.78 113.32 L9.78 124.71 L0 119 Z" class="st5"/>
				</g>
				<g id="shape10929-17" transform="translate(23.5576,-17.9791)">
					<title>Sheet.10929</title>
					<path d="M9.78 119 L0 113.32 L0 124.71 L9.78 119 Z" class="st6"/>
				</g>
				<g id="shape10930-19">
					<title>Sheet.10930</title>
					<path d="M0 122.83 A1.88197 1.88197 -180 0 0 1.88 124.71 L54.81 124.71 A1.88197 1.88197 -180 0 0 56.69 122.83
								 L56.69 106.46 A1.88197 1.88197 -180 0 0 54.81 104.58 L1.88 104.58 A1.88197 1.88197 -180 0 0 -0 106.46
								 L0 122.83 Z" class="st7"/>
				</g>
				<g id="shape10931-23" transform="translate(20.2979,-12.2325)">
					<title>Sheet.10931</title>
					<path d="M0 123.26 A1.44508 1.44508 -180 0 0 1.45 124.71 L14.72 124.71 A1.44508 1.44508 -180 0 0 16.16 123.26
								 L16.16 123.23 A1.44508 1.44508 -180 0 0 14.72 121.78 L1.45 121.78 A1.44508 1.44508 -180 0 0 0 123.23
								 L0 123.26 Z" class="st8"/>
				</g>
			</g>
		</g>
	</g>
</svg>
